!!!!SEGMENT: pl-wnifc--13846--018_anonim--18-stanmo-bratia-wkolo-wtym-koli.krn
!!!kernsource:
!!!cenid: 18xx:3240
!!!COM: Anonim
!!!COM-rismid: pe30004985
!!!CDT:
!!!CNT:
!!!GTL: Pieśni polskie i ruskie ludu galicyjskiego
!!!OTL: 18. Stańmo bratia wkoło wtym koli
!!!PDT: 1833
!!!AGN:
!!!SMS-siglum: PL-Wnifc
!!!SMS-shelfmark: 13846
!!!SMS-shelfwork: 018 G
!!!SMS-variant:
!!!SMS-altvar:
!!!NIFC-rismid: 1001036746
!!!URL-scan: http://repozytorium.nifc.pl/skany/pl-wnifc-nut--13846
!!!ONB-nifc:
!!!OMD: Tempo di Polacca.
!!!key: D
**kern	**kern	**dynam	**kern	**text	**text
*part2	*part2	*part2	*part1	*part1	*part1
*staff3	*staff2	*	*staff1	*staff1	*staff1
*clefF4	*clefG2	*	*clefG2	*	*
*k[f#c#]	*k[f#c#]	*	*k[f#c#]	*	*
*D:	*D:	*	*D:	*	*
*M3/4	*M3/4	*	*M3/4	*	*
*>[A,A,B,B]	*>[A,A,B,B]	*	*>[A,A,B,B]	*	*
=1-	=1-	=1-	=1-	=1-	=1-
*>A	*>A	*	*>A	*	*
!	!	!LO:DY:b=2:t=for&colon;	!LO:TX:a:t=D.a.3	!	!
4D\ 4d\	8.f#\L 8.dd\	f	8.dd\	Stań-	ne-
.	16f#\Jk 16dd\	.	16dd\	-mo	-chaj
4DD/ 4D/	8f#\L 8dd\	.	8dd\	bra-	zna-
.	8e\ 8cc#\	.	8cc#\	-tia	-jut
4r	8g\ 8ee\	.	8ee\	wko-	lu-
.	8f#\J 8dd\	.	8dd\	-ło	-de
=2	=2	=2	=2	=2	=2
4D\ 4d\	8.dd\L 8.ff#\	.	8.ff#\	wtym	szczo
.	16dd\Jk 16ff#\	.	16ff#\	ko-	znas
4DD/ 4D/	8dd\L 8ff#\	.	8ff#\	-li	mo-
.	8cc#\ 8ee\	.	8ee\	we	-že
4r	8ee\ 8gg\	.	8gg\	so	bu-
.	8dd\J 8ff#\	.	8ff#\	ło	-de
!!LO:PB:g=original
=3	=3	=3	=3	=3	=3
*	*	*	*^	*	*
4D\ 4d\	8ff#\L 8aa\	.	8aa/	8a\	wsi	o-
.	8ff#\J 8aa\	.	8aa/	8a\	wraz	-cho-
4DD/ 4D/	(8gg\L 8bb\	.	(>8bb/L	(>8b\L	.	-ty
.	8ff#\ 8aa\	.	8aa/	8a\	za-	.
4r	8ee\) 8gg\	.	8gg/J)	8g\J)	.	.
.	8dd\J 8ff#\	.	8ff#/	8f#\	-śpi-	do-
=4	=4	=4	=4	=4	=4	=4
4AAA/ 4AA/	8dd\L 8ff#\	.	(<8ff#/L	(>8f#\L	-waj-	-daj-
.	8cc#\J 8ee\	.	8ee/J)	8e\J)	.	.
4AA\ 4A\	4.cc#\ 4.ee\	.	4.ee/	4.e\	-mo	-mo
4r	.	.	.	.	.	.
!	!LO:TX:a:t=P:problem:podwójna kreska taktowa z 4 kropkami po obu stronach	!	!	!	!	!
.	8r	.	8r	8ryy	.	.
*	*	*	*v	*v	*	*
=5:|!|:	=5:|!|:	=5:|!|:	=5:|!|:	=5:|!|:	=5:|!|:
*>B	*>B	*>B	*	*>B	*
*^	*	*	*	*	*
!LO:TX:t=P:problem:mixed beam	!	!	!	!	!	!
8AAA/L	2AA/	16gg\LL	.	8gg\	A	.
.	.	16a\	.	.	.	.
8A\ 8c#\ 8e\ 8g\	.	16ee\	.	8ee\	tak	.
.	.	16a\JJ	.	.	.	.
8A\ 8c#\ 8e\ 8g\	.	16cc#\LL	.	8cc#\	płeś-	.
.	.	16a\	.	.	.	.
8A\ 8c#\ 8e\ 8g\	.	16ee\	.	8ee\	-nim	.
.	.	16a\JJ	.	.	.	.
8A\ 8c#\ 8e\ 8g\	4ryy	16gg\LL	.	8gg\	wru-	.
.	.	16a\	.	.	.	.
8A/J 8c#/ 8e/ 8g/	.	16ee\	.	8ee\	-ki	.
.	.	16a\JJ	.	.	.	.
*v	*v	*	*	*	*	*
!!LO:LB:g=original
=6	=6	=6	=6	=6	=6
*	*	*^	*	*	*
!	!	!LO:DY:t=f.:rj	!LO:DY:t=f.:b=2:rj	!	!	!
4D\ 4F#\ 4A\ 4d\	4f#\ 4a\ 4dd\	f	f	4dd\	tras,	.
!	!	!LO:DY:t=f.:rj	!LO:DY:t=f.:b=2:rj	!	!	!
4AA/ 4C#/ 4E/ 4A/	4a\ 4cc#\ 4ee\	f	f	4ee\	tras,	.
!	!	!LO:DY:t=f.:rj	!LO:DY:t=f.:b=2:rj	!	!	!
4DD/ 4FF#/ 4AA/ 4D/	4a\ 4dd\ 4ff#\	f	f	4ff#\	tras	.
*	*	*v	*v	*	*	*
=7	=7	=7	=7	=7	=7
*^	*	*	*	*	*
!LO:TX:t=P:problem:mixed beam	!	!	!	!	!	!
8AAA/L	2AA/	16gg\LL	.	8gg\	tu-	.
.	.	16a\	.	.	.	.
8A\ 8c#\ 8e\ 8g\	.	16ee\	.	8ee\	-pni-	.
.	.	16a\JJ	.	.	.	.
8A\ 8c#\ 8e\ 8g\	.	16cc#\LL	.	8cc#\	-mo	.
.	.	16a\	.	.	.	.
8A\ 8c#\ 8e\ 8g\	.	16ee\	.	8ee\	no-	.
.	.	16a\JJ	.	.	.	.
8A\ 8c#\ 8e\ 8g\	4ryy	16gg\LL	.	8gg\	-ha-	.
.	.	16a\	.	.	.	.
8A/J 8c#/ 8e/ 8g/	.	16ee\	.	8ee\	-my	.
.	.	16a\JJ	.	.	.	.
*v	*v	*	*	*	*	*
=8	=8	=8	=8	=8	=8
!	!	!LO:DY:t=f.:b=2:rj	!	!	!
4D\ 4F#\ 4A\ 4d\	8.f#\L 8.dd\	f	8.dd\L	wraz,	.
.	16a\Jk 16ff#\	.	16ff#\Jk	.	.
!	!	!LO:DY:t=f.:b=2:rj	!	!	!
4AA\ 4C#\ 4E\ 4A\	8.g\L 8.ee\	f	8.ee\L	wraz,	.
.	16e\Jk 16cc#\	.	16cc#\Jk	.	.
!	!	!LO:DY:t=f.:b=2:rj	!	!	!
4DD/ 4FF#/ 4AA/ 4D/	8f#\ 8dd\	f	8dd\	wraz	.
.	8r	.	8r	.	.
!!LO:LB:g=original
==	==	==	==	==	==
*-	*-	*-	*-	*-	*-
!!!system-decoration: s1,{(s2,s3)}
!!!RDF**kern: < = below
!!!RDF**kern: > = above
!!!ENC: Marta Chmielewska
!!!END: 2021-11-10
